X: 5
T: The Marino
R: waltz
M: 3/4
L: 1/8
K: Gmaj
|: "G" g2 d3 B | "Bm"F4 B2 | "C"E4 c2 | "D" D6 |
"C" C2 D2 E2 | "D" F2 D3 A | "G" G2 D2 B2 | "D" A6 |
"G" g2 d3 B | "Bm" F4 f2 | "C" e2 d3 c | "Am"E4 e2 |
"D" d2 c2 A2 | "D" F4 B2 | "G" G6 |[1 "G" G6 :|[2 "G" G4 D2 ||
|: "G" D2 E2 F2 | "G" G2 A2 B2 | "Bm" B6 | "Bm" F6 |
"C" E6 | "C"c4 E2 | "D" G6 | "D" F6 |
"C" C2 D2 E2 | "D" F2 D2 A2 | "G" G2 D2 d2 | "C" e4 d2 |
"Am" c2 A2 F2 | "D" D4 B2 | "G" G6 | "G" G6 :|


Tune 1659	Setting 15085

